X:779
T:Cullen Bay harmony
C:Ian Duncan
S:Sarah Northcott
Z:Nigel Gatherer
M:5/4
L:1/8
K:A
c>d   ec    de/d/ c4 | A>B cA    Bc/d/  c4 | df    cA    Bc/B/    A4 | c>d ec de/d/ c4 :|
fc    cA/c/ dc/A/ c4 | fc  cA/c/ dc/A/ =G4 | fc    cA/c/ dc/A/    c4 | c>d ec de/d/ c4 :|
e>c   cd/e/ fe/d/ e4 | cA  AB/c/ Bc/d/  c4 | df    cA    Bc/B/    A4 | c>d ec de/d/ c4 :|
cA/c/ ec    dc/B/ c4 | ec  cB/A/ cB/A/ =G4 | cA/c/ df    d/c/B/d/ c4 | c>d ec de/d/ c4 :|]
